X: 115
T: Malthouse Hornpipe
O: No 115 Wm Clarke MS Feltwell,Norfolk
Z: Anahata <anahata@treewind.co.uk>
M: 4/4
L: 1/8
K: D
fg | afge dfed | cdcB ABAG | FAdf gfed | c2A2 A2 fg|
afge dfed | cdec ABAG | FAdf gedc | d2d2d2 :|
|: cd | eAAA eAfA | eAAA eAfA | agfd edcd |B2 B>B B2AG| 
FAd2 BGe2 | cABc defg |afbg faec| d2d2d2 :|

